assets/icons/qvision/perm_contact_calendar.svg

<svg width="24" height="24" viewBox="0 0 24 24" fill="none" xmlns="http://www.w3.org/2000/svg">
<g clip-path="url(#clip0_147_4527)">
<path d="M19 3H18V1H16V3H8V1H6V3H5C3.89 3 3 3.9 3 5V19C3 20.1 3.89 21 5 21H19C20.1 21 21 20.1 21 19V5C21 3.9 20.1 3 19 3ZM12 6C13.66 6 15 7.34 15 9C15 10.66 13.66 12 12 12C10.34 12 9 10.66 9 9C9 7.34 10.34 6 12 6ZM18 18H6V17C6 15 10 13.9 12 13.9C14 13.9 18 15 18 17V18Z" fill="#323232"/>
</g>
<defs>
<clipPath id="clip0_147_4527">
<rect width="24" height="24" fill="white"/>
</clipPath>
</defs>
</svg>

<svg xmlns="http://www.w3.org/2000/svg" height="24" viewBox="0 0 24 24" width="24"><path d="M0 0h24v24H0z" fill="none"/><path d="M19 3h-1V1h-2v2H8V1H6v2H5c-1.11 0-2 .9-2 2v14c0 1.1.89 2 2 2h14c1.1 0 2-.9 2-2V5c0-1.1-.9-2-2-2zm-7 3c1.66 0 3 1.34 3 3s-1.34 3-3 3-3-1.34-3-3 1.34-3 3-3zm6 12H6v-1c0-2 4-3.1 6-3.1s6 1.1 6 3.1v1z"/></svg>
